X:1
T:Mass in G - Bernabei
T:#
%%score [ 1 2 3 4 ]
L:1/8
Q:1/4=69
M:4/4
K:G
V:1 treble nm="Soprano" snm="S"
V:2 treble nm="Alto" snm="A"
V:3 treble-8 nm="Tenor" snm="T"
V:4 bass nm="Bass" snm="B"
V:1
!mf!"^Larghetto""^Giuseppe Antonio Bernabei\n(1649-1732)""^Mass in G - Kyrie" !>!d6 G2 | %1
w: Ky- ri-|
 (B2 d2 c2 B2 | A2 G2 A2) B2 | A4"^," B4 | d4 G2 B2 | d2 (c4 Bc |[M:4/4] d4 d4- |"^," d4!f! !>!d4 | %8
w: e * * *|* * * e-|lei- son.|Ky- ri- e|e- lei\- * *|* son.|* Ky-|
 G4 B2 d2 | (c2!>(! BA B2[Q:1/4=68] c2-!>)! |"^rit."[Q:1/4=66] c2!p![Q:1/4=64] B2[Q:1/4=61] A4) | %11
w: ri- e e-|lei\- * * * *||
[Q:1/4=60] !fermata!B8 ||[Q:1/4=60][Q:1/4=69][Q:1/4=60][Q:1/4=60][Q:1/4=60] z8 | z8 | z8 | z8 | %16
w: son.|||||
!p! G4 A2 c2- | c2 B2) (c3 B | A2)"^," G2!mf! G4 | A2 (c4[Q:1/4=68]!>(! B2) | %20
w: Chri- ste e\-|* * lei\- *|* son. Chri-|ste e\- *|
"^rit."[Q:1/4=64] A6[Q:1/4=60] A2!>)! |[Q:1/4=60] !fermata!A8 ||[Q:1/4=69] z8 | z8 | %24
w: le- i-|son.|||
!mf! d3 d Bc (dB | e4) c4- |"^," c2 B2 A4 | %27
w: Ky- ri- e e- lei\- *|* son,|* e- lei-|
[Q:1/4=69]"^,"[Q:1/4=69][Q:1/4=69][Q:1/4=69] G2 B3 B G2- | G2 E4 (c2- |!>(! c2 B2 A4)!>)! | %30
w: son. Ky- ri- e|* e- lei\-||
"^," G2!f![Q:1/4=68] G2"^rit."[Q:1/4=66] ((d4 | %31
w: son, e- lei\-|
[Q:1/4=64]!>(! d2)[Q:1/4=63] c[Q:1/4=62]B[Q:1/4=61] c4)!>)! |!p![Q:1/4=60] !fermata!B8 |] %33
w: |son.|
V:2
 z4!mf! G4- | G2 D2 (E2 G2 | F2) E2 (D2 G2- | G2) F2"^," G2 !>!G2- | G2 F2 (E2 DE | F2) G2 F2 G2 | %6
w: Ky-|* ri- e *|* e- le\- *|* i- son. Ky\-|* ri- e * *|* e- lei\- *|
[M:4/4] A4"^," G2 G2 | (B3 A G2) F2 | z2!f! !>!G4 D2 |!>(! E2 (F2 G2 FE!>)! |"^rit." F2!p! G4) F2 | %11
w: * son, e-|lei\- * * son.|Ky- ri-|e e- le\- * *|* * i-|
 !fermata!G8 || z8 |!p! D4 E2 (G2- | G2 F2) (G3 F | E2)"^," D2 D4 | E2 (!>!G4!<(!!<(! F2) | %17
w: son.||Chri- ste e\-|* * lei\- *|* son. Chri-|ste e\- *|
 (G3 F E2)"^," C2!<)!!<)! |!mf! D4 E2 (G2- | G2 F2) (G4- |"^rit."!>(! G2 F2 E4)!>)! | %21
w: lei\- * * son.|Chri- ste e\-|* * lei\-||
 !fermata!F8 || z8 |!mf! G3 G EF (GE | A4)"^," G2 D2 | G6"^," F2 | G3 G FG (AF | B2 F2 G3 G | %28
w: son.||Ky- ri- e e- lei\- *|* son, e-|lei- son.|Ky- ri- e e- lei\- *|* son. Ky- ri-|
 EF (GE A3 G |!>(! F2 G4) F2!>)! |"^," G4!f!"^rit." D2 G2- |!>(! G=FEF G4)!>)! |!p! !fermata!G8 |] %33
w: e e- le\- * * *|* * i-|son, e- lei\-||son.|
V:3
 z8 | z8 | z8 |!mf! !>!d6 G2 | (B2 d2 c2 B2 | A2 G2 A2) B2 | %6
w: |||Ky- ri-|e * * *|* * * e-|
[M:4/4][K:treble-8] A4"^," B2!f! (!>!d2 | d2) G2 B2 (d2- | d2 c2 B4 |!>(! A4 G4)!>)! | %10
w: lei- son. Ky\-|* ri- e e\-|||
!p!"^rit." (A2 Bc d4) | !fermata!d8 || G4 A2 (c2- | c2 B2) (c3 B | A4)"^," G2 B2 | (c4 B2) G2 | %16
w: lei\- * * *|son.|Chri- ste e\-|* * lei\- *|* son. Chri-|ste * e-|
 (B4 c4 | d4 c2 G2 | =F4)"^," E4 |!mf! c4 d2!>(! e2 |"^rit." (^c2 d4) c2!>)! | !fermata!d8 || %22
w: lei\- *||* son.|Chri- ste e-|le\- * i-|son.|
!mf! d3 d B!courtesy!=c (dB | e2)"^," c4 B2 | (A2 d3 c B2- | B2)"^," c4 c2 | d4"^," d2 d2- | %27
w: Ky- ri- e e- lei\- *|* son, e-|lei\- * * *|* son, e-|lei- son. Ky\-|
 d2 d2 (B4 | c8 |!>(! d8)!>)! |!<(! B8!<)! |!f!"^rit."!>(! e6!>)! e2 |!p! !fermata!d8 |] %33
w: * ri- e|||e-|le- i\-|son.|
V:4
 z8 | z8 | z8 | z4!mf! !>!G,4- | G,2 D,2 (E,2 G,2 | F,2) E,2 D,2 G,2- |[M:4/4] G,2 F,2"^," G,4 | %7
w: |||Ky\-|* ri- e *|* e- le\- *|* i- son.|
!f! !>!G,6 D,2 | E,4 (G,4- |!>(! G,2 F,2 E,4)!>)! |!p!"^rit." D,6 D,2 | !fermata!G,,8 || z8 | z8 | %14
w: Ky- ri-|e e\-||le- i-|son.|||
!p! D,4 E,2 (G,2- | G,2 F,2) (G,3 F, | E,4)"^," A,,4 |!mf!!<(! G,,4 A,,2 (C,2- | %18
w: Chri- ste e\-|* * lei\- *|* son.|Chri- ste e\-|
 C,2!<)! B,,2 C,3 B,,) | A,,4"^," G,,2!>(! G,,2 |"^rit." A,,6 A,,2!>)! | !fermata!D,8 || %22
w: |lei- son, e-|le- i-|son.|
 z2!mf! G,4 G,2 | E,8 | F,4 (G,4 | E,4 A,4) |"^," G,4 D,3 D, | B,,C, (D,B,, E,4) |"^," C,4 A,,4 | %29
w: Ky- ri-|e|e lei\-||son. Ky- ri-|e e- lei\- * *|son, e-|
!>(! D,8!>)! |"^," G,,6!f!"^rit." G,,2 |!>(! C,6!>)! C,2 |!p! G,,8 |] %33
w: lei-|son, e-|le- i\-|son.|

